material/.icons/material/book-plus-multiple.svg

<svg xmlns="http://www.w3.org/2000/svg" viewBox="0 0 24 24"><path d="M13.09 20H5V6H3v14a2 2 0 002 2h8.81a5.5 5.5 0 01-.72-2M19 2h-5v5l-2-1.5L10 7V2H9a2 2 0 00-2 2v12a2 2 0 002 2h4.09A6 6 0 0121 13.34V4a2 2 0 00-2-2m1 13v3h3v2h-3v3h-2v-3h-3v-2h3v-3z"/></svg>

<?xml version="1.0" encoding="UTF-8"?><!DOCTYPE svg PUBLIC "-//W3C//DTD SVG 1.1//EN" "http://www.w3.org/Graphics/SVG/1.1/DTD/svg11.dtd"><svg xmlns="http://www.w3.org/2000/svg" xmlns:xlink="http://www.w3.org/1999/xlink" version="1.1" id="mdi-book-plus-multiple" width="24" height="24" viewBox="0 0 24 24"><path d="M13.09 20H5V6H3V20A2 2 0 0 0 5 22H13.81A5.5 5.5 0 0 1 13.09 20M19 2H14V7L12 5.5L10 7V2H9A2 2 0 0 0 7 4V16A2 2 0 0 0 9 18H13.09A6 6 0 0 1 21 13.34V4A2 2 0 0 0 19 2M20 15V18H23V20H20V23H18V20H15V18H18V15Z" /></svg>
